Numix/32/mimetypes/virtualbox-vbox.svg

<?xml version="1.0" encoding="UTF-8" standalone="no"?>
<svg
   xmlns:dc="http://purl.org/dc/elements/1.1/"
   xmlns:cc="http://creativecommons.org/ns#"
   xmlns:rdf="http://www.w3.org/1999/02/22-rdf-syntax-ns#"
   xmlns:svg="http://www.w3.org/2000/svg"
   xmlns="http://www.w3.org/2000/svg"
   xmlns:sodipodi="http://sodipodi.sourceforge.net/DTD/sodipodi-0.dtd"
   xmlns:inkscape="http://www.inkscape.org/namespaces/inkscape"
   width="32"
   height="32"
   viewBox="0 0 32 32"
   id="svg2"
   version="1.1"
   inkscape:version="0.91 r13725"
   sodipodi:docname="virtualbox-vbox.svg">
  <metadata
     id="metadata26">
    <rdf:RDF>
      <cc:Work
         rdf:about="">
        <dc:format>image/svg+xml</dc:format>
        <dc:type
           rdf:resource="http://purl.org/dc/dcmitype/StillImage" />
        <dc:title />
      </cc:Work>
    </rdf:RDF>
  </metadata>
  <defs
     id="defs24" />
  <sodipodi:namedview
     pagecolor="#ffffff"
     bordercolor="#666666"
     borderopacity="1"
     objecttolerance="10"
     gridtolerance="10"
     guidetolerance="10"
     inkscape:pageopacity="0"
     inkscape:pageshadow="2"
     inkscape:window-width="1920"
     inkscape:window-height="1013"
     id="namedview22"
     showgrid="false"
     inkscape:zoom="1"
     inkscape:cx="14.983083"
     inkscape:cy="4.2913294"
     inkscape:window-x="0"
     inkscape:window-y="27"
     inkscape:window-maximized="1"
     inkscape:current-layer="svg2">
    <inkscape:grid
       type="xygrid"
       id="grid3100" />
  </sodipodi:namedview>
  <path
     style="fill:#14aae9;fill-opacity:1"
     d="M 5.335888,2.97e-4 C 4.648414,3.12e-4 4,0.676788 4,1.394031 L 4,30.606268 C 4,31.282757 4.687474,32 5.335888,32 l 21.327331,0 c 0.648414,0 1.335888,-0.717243 1.335888,-1.393732 L 28,8.9999995 19,0 z"
     id="path4-1"
     inkscape:connector-curvature="0"
     sodipodi:nodetypes="ssssssccs" />
  <path
     style="fill:#000000;fill-opacity:0.19599998"
     d="m 20.999999,8.9999995 7,7.0000005 0,-7.0000005 z"
     id="path6-4"
     inkscape:connector-curvature="0"
     sodipodi:nodetypes="cccc" />
  <path
     style="fill:#ffffff;fill-opacity:0.39200003"
     d="m 19.000305,2.97e-4 8.991594,8.9997025 -7.613262,0 c -0.672951,0 -1.378332,-0.7134896 -1.378332,-1.3864402 z"
     id="path8-6"
     inkscape:connector-curvature="0"
     sodipodi:nodetypes="ccssc" />
  <path
     style="fill:#000000;fill-opacity:0.19599998"
     d="m 4,24 0,6.667969 C 4,31.316407 4.6875,32 5.3320311,32 L 26.667969,32 C 27.3125,32 28,31.316407 28,30.667969 L 28,24 z"
     id="path3011"
     inkscape:connector-curvature="0" />
  <path
     style="fill:#ffffff;fill-opacity:1;fill-rule:nonzero;stroke:none"
     d="m 15.5,9.158 -2,8.579364 L 12.27595,14 10,14 l 0,1 1.644,0 1.956818,5.993934 0.228656,0.0061 1.979976,-8.588287 1.578291,5.193171 c 0.421804,-1.60731 0.84982,-3.215011 1.274023,-4.822322 0.93781,2.165269 -0.01791,0.04248 0.938499,2.217404 L 22,15 22,14 20.260891,14 18.660568,9 c -0.424205,1.595812 -0.851036,3.190921 -1.275239,4.784313 z"
     id="path55"
     inkscape:connector-curvature="0"
     sodipodi:nodetypes="cccccccccccccccccc" />
  <path
     inkscape:connector-curvature="0"
     id="path4247"
     style="font-style:normal;font-variant:normal;font-weight:bold;font-stretch:normal;font-size:9.0232296px;line-height:125%;font-family:'Ubuntu Mono';-inkscape-font-specification:'Ubuntu Mono, Bold';text-align:start;letter-spacing:0px;word-spacing:0px;writing-mode:lr-tb;text-anchor:start;fill:#ffffff;fill-opacity:1;stroke:none;stroke-width:1px;stroke-linecap:butt;stroke-linejoin:miter;stroke-opacity:1"
     d="M 8.8210526,31 Q 8.5684211,30.331179 8.2842105,29.487883 8,28.644588 7.7473685,27.810986 7.4947369,26.96769 7.2947369,26.221325 7.0947367,25.474959 7,25 l 1.368421,0 q 0.063158,0.465266 0.1894739,1.085622 0.1263156,0.610662 0.273684,1.26979 0.1578948,0.649434 0.3263159,1.289176 0.1789472,0.630049 0.3473689,1.134087 0.1684203,-0.494345 0.3368417,-1.124394 0.1684216,-0.63974 0.3157896,-1.289176 0.147368,-0.659127 0.273684,-1.279483 Q 10.557895,25.465266 10.642105,25 L 12,25 q -0.126316,0.581583 -0.315789,1.298869 -0.178947,0.717286 -0.421053,1.512117 -0.231579,0.785136 -0.515789,1.609047 Q 10.463157,30.234249 10.157895,31 l -1.3368424,0 z" />
  <path
     inkscape:connector-curvature="0"
     id="path4249"
     style="font-style:normal;font-variant:normal;font-weight:bold;font-stretch:normal;font-size:9.0232296px;line-height:125%;font-family:'Ubuntu Mono';-inkscape-font-specification:'Ubuntu Mono, Bold';text-align:start;letter-spacing:0px;word-spacing:0px;writing-mode:lr-tb;text-anchor:start;fill:#ffffff;fill-opacity:1;stroke:none;stroke-width:1px;stroke-linecap:butt;stroke-linejoin:miter;stroke-opacity:1"
     d="m 15.999999,29.154577 c 0,0.353313 -0.06104,0.649843 -0.183132,0.889591 -0.122088,0.233438 -0.289156,0.422712 -0.501205,0.567823 -0.205622,0.138801 -0.453012,0.239748 -0.74217,0.302839 C 14.290762,30.97161 13.985542,31 13.657831,31 13.394377,31 13.121285,30.984227 12.838554,30.95268 12.555823,30.927447 12.276305,30.886437 12,30.829651 l 0,-5.687697 c 0.224899,-0.03785 0.472289,-0.0694 0.742168,-0.09464 0.269879,-0.03155 0.536546,-0.04732 0.8,-0.04732 0.449799,0 0.816065,0.04732 1.098796,0.141955 0.282731,0.08833 0.504417,0.208202 0.665059,0.359622 0.160643,0.14511 0.26988,0.309148 0.327712,0.492114 0.05783,0.182965 0.08675,0.36593 0.08675,0.548895 0,0.277603 -0.07068,0.523659 -0.212049,0.73817 -0.13494,0.214511 -0.318072,0.384858 -0.549397,0.511041 0.404819,0.145111 0.677911,0.340694 0.819277,0.586751 0.147789,0.246057 0.221684,0.504732 0.221683,0.776035 z m -2.999996,-0.794952 0,1.589906 c 0.08354,0.01262 0.199401,0.02208 0.295786,0.02839 0.102811,0.0063 0.202409,0.0094 0.298796,0.0094 0.13494,0 0.266667,-0.0095 0.39518,-0.02839 0.128514,-0.02523 0.240964,-0.06624 0.337349,-0.123028 0.102812,-0.06309 0.186346,-0.148267 0.250603,-0.255521 0.06425,-0.113565 0.09638,-0.255521 0.09638,-0.425868 0,-0.283911 -0.09317,-0.485804 -0.279518,-0.605677 -0.17992,-0.126183 -0.424097,-0.189275 -0.732531,-0.189275 l -0.662051,0 z m 1.180708,-1.415199 c 0.174827,-0.09299 0.217108,-0.412661 0.156041,-0.610038 -0.04498,-0.08833 -0.106024,-0.154573 -0.183133,-0.198738 -0.07711,-0.05047 -0.167067,-0.08202 -0.269878,-0.09464 -0.102811,-0.01893 -0.208836,-0.02839 -0.318074,-0.02839 -0.08996,0 -0.183132,0.0031 -0.279517,0.0094 C 13.18976,26.02832 13.077108,26.03775 13,26.05041 L 13,27 l 0.488559,0 c 0,0 0.564395,0.03922 0.692152,-0.05557 z"
     sodipodi:nodetypes="scccsccccsccsscccscccscccscsccccccsscccc" />
  <path
     inkscape:connector-curvature="0"
     id="path4251"
     style="font-style:normal;font-variant:normal;font-weight:bold;font-stretch:normal;font-size:9.0232296px;line-height:125%;font-family:'Ubuntu Mono';-inkscape-font-specification:'Ubuntu Mono, Bold';text-align:start;letter-spacing:0px;word-spacing:0px;writing-mode:lr-tb;text-anchor:start;fill:#ffffff;fill-opacity:1;stroke:none;stroke-width:1px;stroke-linecap:butt;stroke-linejoin:miter;stroke-opacity:1"
     d="m 17.121075,28 q 0,0.417956 0.02691,0.789474 0.03587,0.362229 0.12556,0.631578 0.09866,0.26935 0.269058,0.427246 0.170405,0.157894 0.4574,0.157894 0.278027,0 0.44843,-0.157894 0.179373,-0.157896 0.269059,-0.427246 0.09866,-0.278638 0.12556,-0.640867 0.03587,-0.362229 0.03587,-0.780185 0,-0.417956 -0.03587,-0.780186 -0.02691,-0.371516 -0.12556,-0.640867 -0.08968,-0.26935 -0.26009,-0.427245 Q 18.286995,25.993807 18,25.993807 q -0.286995,0 -0.4574,0.157895 -0.170403,0.157895 -0.269058,0.436533 -0.08968,0.26935 -0.12556,0.631579 Q 17.121072,27.582044 17.121072,28 Z M 16,28 Q 16,26.513931 16.529147,25.76161 17.058296,25 18,25 18.977579,25 19.48879,25.76161 20,26.513931 20,28 20,29.486068 19.479821,30.247678 18.959641,31 18.008968,31 17.03139,31 16.51121,30.247678 16,29.486068 16,28 Z" />
  <path
     inkscape:connector-curvature="0"
     id="path4253"
     style="font-style:normal;font-variant:normal;font-weight:bold;font-stretch:normal;font-size:9.0232296px;line-height:125%;font-family:'Ubuntu Mono';-inkscape-font-specification:'Ubuntu Mono, Bold';text-align:start;letter-spacing:0px;word-spacing:0px;writing-mode:lr-tb;text-anchor:start;fill:#ffffff;fill-opacity:1;stroke:none;stroke-width:1px;stroke-linecap:butt;stroke-linejoin:miter;stroke-opacity:1"
     d="m 23.608785,31 q -0.198744,-0.494345 -0.491631,-1.095315 -0.282428,-0.600969 -0.596235,-1.201938 -0.303347,0.57189 -0.606693,1.192245 Q 21.610877,30.505655 21.391213,31 L 20,31 q 0.1046,-0.261712 0.303346,-0.630049 0.209205,-0.368334 0.44979,-0.79483 0.251048,-0.426495 0.523014,-0.872374 0.271966,-0.455575 0.523011,-0.872376 L 20.104602,25 21.495815,25 22.520919,26.919225 23.598325,25 l 1.297071,0 -1.652719,2.801292 q 0.282427,0.416801 0.554393,0.872375 0.271967,0.455574 0.502092,0.891761 0.240585,0.426494 0.418409,0.804523 Q 24.895396,30.738288 25,31 l -1.391215,0 z" />
</svg>

<svg xmlns="http://www.w3.org/2000/svg" viewBox="0 0 32 32">
 <path d="m 5.336 0 c -0.687 0 -1.336 0.676 -1.336 1.394 l 0 29.21 c 0 0.676 0.687 1.394 1.336 1.394 l 21.327 0 c 0.648 0 1.336 -0.717 1.336 -1.394 l 0.001 -21.606 -9 -9 z" style="fill:#14aae9;fill-opacity:1"/>
 <path d="m 21 9 7 7 0 -7 z" style="fill:#000;fill-opacity:0.196"/>
 <path d="m 19 0 8.992 9 -7.613 0 c -0.673 0 -1.378 -0.713 -1.378 -1.386 z" style="fill:#fff;fill-opacity:0.392"/>
 <path d="m 4 24 0 6.668 c 0 0.648 0.688 1.332 1.332 1.332 l 21.336 0 c 0.645 0 1.332 -0.684 1.332 -1.332 l 0 -6.668 z" style="fill:#000;fill-opacity:0.196"/>
 <path d="m 15.5 9.158 -2 8.579 l -1.224 -3.737 -2.276 0 l 0 1 1.644 0 1.957 5.994 0.229 0.006 1.98 -8.588 1.578 5.193 c 0.422 -1.607 0.85 -3.215 1.274 -4.822 0.938 2.165 -0.018 0.042 0.938 2.217 l 2.4 0 0 -1 -1.739 0 -1.6 -5 c -0.424 1.596 -0.851 3.191 -1.275 4.784 z" style="fill:#fff;fill-opacity:1;stroke:none;fill-rule:nonzero"/>
 <path d="m 8.821 31 q -0.253 -0.669 -0.537 -1.512 -0.284 -0.843 -0.537 -1.677 -0.253 -0.843 -0.453 -1.59 -0.2 -0.746 -0.295 -1.221 l 1.368 0 q 0.063 0.465 0.189 1.086 0.126 0.611 0.274 1.27 0.158 0.649 0.326 1.289 0.179 0.63 0.347 1.134 0.168 -0.494 0.337 -1.124 0.168 -0.64 0.316 -1.289 0.147 -0.659 0.274 -1.279 q 0.126 -0.62 0.211 -1.086 l 1.358 0 q -0.126 0.582 -0.316 1.299 -0.179 0.717 -0.421 1.512 -0.232 0.785 -0.516 1.609 q -0.284 0.814 -0.589 1.58 l -1.337 0 z" style="fill:#fff;fill-opacity:1;stroke:none"/>
 <path d="m 16 29.15 c 0 0.353 -0.061 0.65 -0.183 0.89 -0.122 0.233 -0.289 0.423 -0.501 0.568 -0.206 0.139 -0.453 0.24 -0.742 0.303 c -0.283 0.057 -0.588 0.085 -0.916 0.085 -0.263 0 -0.537 -0.016 -0.819 -0.047 -0.283 -0.025 -0.562 -0.066 -0.839 -0.123 l 0 -5.688 c 0.225 -0.038 0.472 -0.069 0.742 -0.095 0.27 -0.032 0.537 -0.047 0.8 -0.047 0.45 0 0.816 0.047 1.099 0.142 0.283 0.088 0.504 0.208 0.665 0.36 0.161 0.145 0.27 0.309 0.328 0.492 0.058 0.183 0.087 0.366 0.087 0.549 0 0.278 -0.071 0.524 -0.212 0.738 -0.135 0.215 -0.318 0.385 -0.549 0.511 0.405 0.145 0.678 0.341 0.819 0.587 0.148 0.246 0.222 0.505 0.222 0.776 z m -3 -0.795 0 1.59 c 0.084 0.013 0.199 0.022 0.296 0.028 0.103 0.006 0.202 0.009 0.299 0.009 0.135 0 0.267 -0.009 0.395 -0.028 0.129 -0.025 0.241 -0.066 0.337 -0.123 0.103 -0.063 0.186 -0.148 0.251 -0.256 0.064 -0.114 0.096 -0.256 0.096 -0.426 0 -0.284 -0.093 -0.486 -0.28 -0.606 -0.18 -0.126 -0.424 -0.189 -0.733 -0.189 l -0.662 0 z m 1.181 -1.415 c 0.175 -0.093 0.217 -0.413 0.156 -0.61 -0.045 -0.088 -0.106 -0.155 -0.183 -0.199 -0.077 -0.05 -0.167 -0.082 -0.27 -0.095 -0.103 -0.019 -0.209 -0.028 -0.318 -0.028 -0.09 0 -0.183 0.003 -0.28 0.009 c -0.096 0.006 -0.209 0.016 -0.286 0.028 l 0 0.95 l 0.489 0 c 0 0 0.564 0.039 0.692 -0.056 z" style="fill:#fff;fill-opacity:1;stroke:none"/>
 <path d="m 17.12 28 q 0 0.418 0.027 0.789 0.036 0.362 0.126 0.632 0.099 0.269 0.269 0.427 0.17 0.158 0.457 0.158 0.278 0 0.448 -0.158 0.179 -0.158 0.269 -0.427 0.099 -0.279 0.126 -0.641 0.036 -0.362 0.036 -0.78 0 -0.418 -0.036 -0.78 -0.027 -0.372 -0.126 -0.641 -0.09 -0.269 -0.26 -0.427 q -0.17 -0.158 -0.457 -0.158 q -0.287 0 -0.457 0.158 -0.17 0.158 -0.269 0.437 -0.09 0.269 -0.126 0.632 q -0.027 0.362 -0.027 0.78 m -1.121 0 q 0 -1.486 0.529 -2.238 0.529 -0.762 1.471 -0.762 0.978 0 1.489 0.762 0.511 0.752 0.511 2.238 0 1.486 -0.52 2.248 -0.52 0.752 -1.471 0.752 -0.978 0 -1.498 -0.752 -0.511 -0.762 -0.511 -2.248" style="fill:#fff;fill-opacity:1;stroke:none"/>
 <path d="m 23.609 31 q -0.199 -0.494 -0.492 -1.095 -0.282 -0.601 -0.596 -1.202 -0.303 0.572 -0.607 1.192 q -0.303 0.611 -0.523 1.105 l -1.391 0 q 0.105 -0.262 0.303 -0.63 0.209 -0.368 0.45 -0.795 0.251 -0.426 0.523 -0.872 0.272 -0.456 0.523 -0.872 l -1.695 -2.83 1.391 0 1.025 1.919 1.077 -1.919 l 1.297 0 -1.653 2.801 q 0.282 0.417 0.554 0.872 0.272 0.456 0.502 0.892 0.241 0.426 0.418 0.805 q 0.178 0.368 0.282 0.63 l -1.391 0 z" style="fill:#fff;fill-opacity:1;stroke:none"/>
</svg>
